;FLAVOR:Marlin
;TIME:1795
;Filament used: 0.786118m
;Layer height: 0.12
;MINX:84.482
;MINY:84.467
;MINZ:0.12
;MAXX:135.535
;MAXY:135.533
;MAXZ:7.32
;Generated with Cura_SteamEngine 4.3.0
M140 S80
M105
M190 S80
M104 S240
M105
M109 S240
M82 ;absolute extrusion mode
M201 X500.00 Y500.00 Z100.00 E5000.00 ;Setup machine max acceleration
M203 X500.00 Y500.00 Z10.00 E50.00 ;Setup machine max feedrate
M204 P500.00 R1000.00 T500.00 ;Setup Print/Retract/Travel acceleration
M205 X8.00 Y8.00 Z0.40 E5.00 ;Setup Jerk
M220 S100 ;Reset Feedrate
M221 S100 ;Reset Flowrate

G28 ;Home

G92 E0 ;Reset Extruder
G1 Z2.0 F3000 ;Move Z Axis up
G1 X10.1 Y20 Z0.28 F5000.0 ;Move to start position
G1 X10.1 Y200.0 Z0.28 F1500.0 E15 ;Draw the first line
G1 X10.4 Y200.0 Z0.28 F5000.0 ;Move to side a little
G1 X10.4 Y20 Z0.28 F1500.0 E30 ;Draw the second line
G92 E0 ;Reset Extruder
G1 Z2.0 F3000 ;Move Z Axis up

G92 E0
G92 E0
G1 F2700 E-5
;LAYER_COUNT:61
;LAYER:0
M107
G0 F6000 X91.977 Y91.907 Z0.12
;TYPE:SKIRT
G1 F2700 E0
G1 F900 X92.368 Y91.525 E0.01091
G1 X92.654 Y91.259 E0.0187
G1 X93.017 Y90.936 E0.0284
G1 X93.446 Y90.571 E0.03964
G1 X93.604 Y90.439 E0.04375
G1 X93.908 Y90.19 E0.05159
G1 X94.026 Y90.095 E0.05461
G1 X94.615 Y89.626 E0.06964
G1 X95.089 Y89.269 E0.08148
G1 X95.363 Y89.074 E0.08819
G1 X95.625 Y88.893 E0.09455
G1 X95.915 Y88.699 E0.10151
G1 X96.399 Y88.393 E0.11294
G1 X97.154 Y87.943 E0.13048
G1 X97.417 Y87.791 E0.13654
G1 X98.016 Y87.456 E0.15024
G1 X98.488 Y87.207 E0.16089
G1 X98.848 Y87.028 E0.16891
G1 X99.179 Y86.871 E0.17622
G1 X99.591 Y86.683 E0.18526
G1 X100.025 Y86.496 E0.19469
G1 X100.548 Y86.284 E0.20595
G1 X100.898 Y86.149 E0.21344
G1 X101.742 Y85.84 E0.23137
G1 X102.325 Y85.644 E0.24365
G1 X102.756 Y85.513 E0.25264
G1 X103.049 Y85.429 E0.25872
G1 X103.509 Y85.303 E0.26824
G1 X104.006 Y85.179 E0.27846
G1 X104.545 Y85.058 E0.28948
G1 X104.866 Y84.991 E0.29603
G1 X105.673 Y84.835 E0.31243
G1 X106.314 Y84.731 E0.32539
G1 X106.766 Y84.671 E0.33449
G1 X107.056 Y84.636 E0.34032
G1 X107.642 Y84.574 E0.35208
G1 X108.146 Y84.532 E0.36217
G1 X108.667 Y84.501 E0.37258
G1 X109.025 Y84.486 E0.37974
G1 X109.734 Y84.467 E0.39389
G1 X110.34 Y84.467 E0.40598
G1 X110.87 Y84.482 E0.41656
G1 X111.163 Y84.495 E0.42242
G1 X111.818 Y84.531 E0.43551
G1 X112.324 Y84.57 E0.44563
G1 X112.738 Y84.612 E0.45394
G1 X113.106 Y84.656 E0.46134
G1 X113.755 Y84.744 E0.47441
G1 X114.285 Y84.829 E0.48512
G1 X114.872 Y84.938 E0.49703
G1 X115.206 Y85.005 E0.50383
G1 X115.899 Y85.156 E0.51798
G1 X116.413 Y85.281 E0.52854
G1 X116.811 Y85.388 E0.53676
G1 X117.168 Y85.491 E0.54418
G1 X117.669 Y85.644 E0.55463
G1 X118.182 Y85.814 E0.56542
G1 X118.843 Y86.052 E0.57944
G1 X119.168 Y86.175 E0.58637
G1 X119.88 Y86.457 E0.60166
G1 X120.201 Y86.59 E0.60859
G1 X120.388 Y86.671 E0.61266
G1 X120.814 Y86.866 E0.62201
G1 X121.402 Y87.151 E0.63505
G1 X121.987 Y87.457 E0.64822
G1 X122.609 Y87.806 E0.66245
G1 X122.864 Y87.954 E0.66834
G1 X123.586 Y88.385 E0.68512
G1 X123.861 Y88.554 E0.69156
G1 X124.032 Y88.663 E0.69561
G1 X124.469 Y88.957 E0.70612
G1 X124.882 Y89.249 E0.71621
G1 X125.356 Y89.604 E0.72803
G1 X125.892 Y90.028 E0.74167
G1 X126.067 Y90.169 E0.74615
G1 X126.261 Y90.329 E0.75117
G1 X126.343 Y90.397 E0.7533
G1 X126.935 Y90.895 E0.76873
G1 X127.466 Y91.372 E0.78298
G1 X127.9 Y91.788 E0.79498
G1 X128.44 Y92.344 E0.81044
G1 X128.854 Y92.801 E0.82275
G1 X128.947 Y92.904 E0.82552
G1 X129.257 Y93.255 E0.83486
G1 X129.347 Y93.358 E0.83759
G1 X129.794 Y93.877 E0.85126
G1 X130.569 Y94.891 E0.87673
G1 X131.019 Y95.556 E0.89276
G1 X131.124 Y95.714 E0.89654
G1 X131.622 Y96.478 E0.91474
G1 X131.707 Y96.61 E0.91787
G1 X132.081 Y97.202 E0.93185
G1 X132.547 Y98.015 E0.95055
G1 X132.766 Y98.463 E0.9605
G1 X133.016 Y99.004 E0.97239
G1 X133.105 Y99.201 E0.97671
G1 X133.532 Y100.175 E0.99793
G1 X133.595 Y100.321 E1.0011
G1 X133.884 Y101.007 E1.01596
G1 X134.211 Y101.886 E1.03467
G1 X134.355 Y102.369 E1.04473
G1 X134.508 Y102.927 E1.05628
G1 X134.564 Y103.14 E1.06067
G1 X134.834 Y104.208 E1.08266
G1 X134.866 Y104.337 E1.08531
G1 X135.034 Y105.037 E1.09968
G1 X135.214 Y105.957 E1.11838
G1 X135.282 Y106.5 E1.1293
G1 X135.337 Y107.045 E1.14024
G1 X135.354 Y107.228 E1.1439
G1 X135.45 Y108.37 E1.16677
G1 X135.463 Y108.54 E1.17018
G1 X135.511 Y109.241 E1.1842
G1 X135.535 Y110.178 E1.2029
G1 X135.517 Y110.662 E1.21257
G1 X135.48 Y111.268 E1.22468
G1 X135.466 Y111.464 E1.22861
G1 X135.388 Y112.452 E1.24838
G1 X135.374 Y112.608 E1.25151
G1 X135.311 Y113.283 E1.26504
G1 X135.136 Y114.466 E1.2889
G1 X135.074 Y114.769 E1.29507
G1 X134.997 Y115.117 E1.30219
G1 X134.705 Y116.341 E1.3273
G1 X134.662 Y116.513 E1.33084
G1 X134.484 Y117.209 E1.34517
G1 X134.124 Y118.353 E1.36911
G1 X134.003 Y118.675 E1.37597
G1 X133.87 Y119.012 E1.3832
G1 X133.428 Y120.08 E1.40627
G1 X133.366 Y120.227 E1.40945
G1 X133.051 Y120.958 E1.42534
G1 X132.487 Y122.084 E1.45047
G1 X132.321 Y122.373 E1.45712
G1 X132.166 Y122.634 E1.46318
G1 X131.542 Y123.654 E1.48704
G1 X131.459 Y123.789 E1.4902
G1 X131.061 Y124.419 E1.50507
G1 X130.351 Y125.416 E1.5295
G1 X130.139 Y125.681 E1.53627
G1 X129.911 Y125.955 E1.54338
G1 X129.094 Y126.911 E1.56848
G1 X128.987 Y127.036 E1.57176
G1 X128.551 Y127.531 E1.58493
G1 X128.197 Y127.914 E1.59534
G1 X128.042 Y128.074 E1.59978
G1 X127.647 Y128.462 E1.61083
G1 X127.362 Y128.728 E1.61861
G1 X126.974 Y129.072 E1.62896
G1 X126.544 Y129.437 E1.64021
G1 X126.399 Y129.558 E1.64398
G1 X126.105 Y129.799 E1.65157
G1 X125.988 Y129.894 E1.65458
G1 X125.397 Y130.365 E1.66966
G1 X124.926 Y130.721 E1.68144
G1 X124.644 Y130.922 E1.68835
G1 X124.375 Y131.107 E1.69487
G1 X124.085 Y131.301 E1.70183
G1 X123.602 Y131.606 E1.71323
G1 X122.864 Y132.046 E1.73037
G1 X122.606 Y132.195 E1.73632
G1 X121.99 Y132.54 E1.75041
G1 X121.512 Y132.793 E1.7612
G1 X121.152 Y132.972 E1.76923
G1 X120.821 Y133.129 E1.77654
G1 X120.409 Y133.317 E1.78557
G1 X119.975 Y133.504 E1.79501
G1 X119.452 Y133.716 E1.80627
G1 X119.105 Y133.85 E1.81369
G1 X118.27 Y134.156 E1.83144
G1 X117.69 Y134.351 E1.84365
G1 X117.25 Y134.485 E1.85283
G1 X116.951 Y134.571 E1.85904
G1 X116.491 Y134.697 E1.86855
G1 X115.994 Y134.821 E1.87878
G1 X115.455 Y134.942 E1.8898
G1 X115.134 Y135.009 E1.89634
G1 X114.327 Y135.165 E1.91275
G1 X113.686 Y135.269 E1.92571
G1 X113.234 Y135.329 E1.93481
G1 X112.944 Y135.364 E1.94063
G1 X112.358 Y135.426 E1.95239
G1 X111.854 Y135.468 E1.96249
G1 X111.333 Y135.499 E1.9729
G1 X110.982 Y135.514 E1.97991
G1 X110.291 Y135.533 E1.99371
G1 X109.688 Y135.533 E2.00574
G1 X109.14 Y135.518 E2.01668
G1 X108.837 Y135.505 E2.02273
G1 X108.182 Y135.469 E2.03582
G1 X107.676 Y135.43 E2.04595
G1 X107.262 Y135.388 E2.05426
G1 X106.894 Y135.344 E2.06165
G1 X106.245 Y135.256 E2.07472
G1 X105.715 Y135.171 E2.08543
G1 X105.128 Y135.062 E2.09735
G1 X104.794 Y134.995 E2.10415
G1 X104.101 Y134.844 E2.1183
G1 X103.587 Y134.719 E2.12886
G1 X103.189 Y134.612 E2.13708
G1 X102.832 Y134.509 E2.1445
G1 X102.331 Y134.356 E2.15495
G1 X101.818 Y134.186 E2.16574
G1 X101.157 Y133.948 E2.17976
G1 X100.832 Y133.825 E2.18669
G1 X100.12 Y133.543 E2.20197
G1 X99.799 Y133.41 E2.20891
G1 X99.612 Y133.329 E2.21297
G1 X99.186 Y133.134 E2.22232
G1 X98.598 Y132.849 E2.23536
G1 X98.015 Y132.544 E2.24849
G1 X97.375 Y132.185 E2.26314
G1 X97.11 Y132.032 E2.26924
G1 X96.406 Y131.611 E2.28561
G1 X96.139 Y131.446 E2.29188
G1 X95.968 Y131.337 E2.29592
G1 X95.541 Y131.05 E2.30619
G1 X95.11 Y130.746 E2.31672
G1 X94.561 Y130.332 E2.33044
G1 X93.849 Y129.76 E2.34866
G1 X93.656 Y129.602 E2.35364
G1 X93.063 Y129.103 E2.36911
G1 X92.523 Y128.618 E2.38359
G1 X92.088 Y128.2 E2.39563
G1 X91.572 Y127.669 E2.41041
G1 X91.16 Y127.216 E2.42263
G1 X91.055 Y127.098 E2.42578
G1 X90.744 Y126.746 E2.43515
G1 X90.649 Y126.638 E2.43802
G1 X90.205 Y126.122 E2.45161
G1 X89.433 Y125.112 E2.47698
G1 X88.981 Y124.444 E2.49307
G1 X88.876 Y124.286 E2.49686
G1 X88.378 Y123.522 E2.51506
G1 X88.296 Y123.394 E2.51809
G1 X87.921 Y122.801 E2.53209
G1 X87.454 Y121.988 E2.5508
G1 X87.232 Y121.535 E2.56087
G1 X86.983 Y120.996 E2.57272
G1 X86.893 Y120.796 E2.5771
G1 X86.466 Y119.821 E2.59834
G1 X86.406 Y119.681 E2.60138
G1 X86.113 Y118.986 E2.61643
G1 X85.786 Y118.107 E2.63515
G1 X85.633 Y117.594 E2.64583
G1 X85.484 Y117.045 E2.65718
G1 X85.436 Y116.86 E2.661
G1 X85.166 Y115.792 E2.68298
G1 X85.131 Y115.653 E2.68584
G1 X84.963 Y114.95 E2.70026
G1 X84.784 Y114.029 E2.71899
G1 X84.717 Y113.489 E2.72985
G1 X84.656 Y112.88 E2.74206
G1 X84.639 Y112.692 E2.74583
G1 X84.55 Y111.618 E2.76733
G1 X84.538 Y111.468 E2.77034
G1 X84.489 Y110.759 E2.78452
G1 X84.482 Y109.363 E2.81238
G1 X84.511 Y108.864 E2.82235
G1 X84.527 Y108.629 E2.82705
G1 X84.612 Y107.561 E2.84843
G1 X84.624 Y107.414 E2.85138
G1 X84.69 Y106.705 E2.86559
G1 X84.873 Y105.485 E2.89021
G1 X84.941 Y105.158 E2.89687
G1 X85.015 Y104.829 E2.9036
G1 X85.31 Y103.601 E2.9288
G1 X85.348 Y103.448 E2.93195
G1 X85.515 Y102.794 E2.94542
G1 X85.876 Y101.647 E2.96942
G1 X85.997 Y101.325 E2.97628
G1 X86.13 Y100.988 E2.98351
G1 X86.584 Y99.891 E3.0072
G1 X86.652 Y99.731 E3.01067
G1 X86.956 Y99.028 E3.02596
G1 X87.507 Y97.926 E3.05055
G1 X87.672 Y97.638 E3.05717
G1 X87.836 Y97.362 E3.06358
G1 X88.471 Y96.325 E3.08784
G1 X88.551 Y96.197 E3.09085
G1 X88.938 Y95.584 E3.10532
G1 X89.649 Y94.584 E3.12981
G1 X89.861 Y94.319 E3.13658
G1 X90.091 Y94.042 E3.14376
G1 X90.917 Y93.076 E3.16913
G1 X91.021 Y92.955 E3.17231
G1 X91.456 Y92.461 E3.18545
G1 X91.83 Y92.058 E3.19642
G1 X91.977 Y91.907 E3.20063
G0 F6000 X92.264 Y92.186
G1 F900 X92.64 Y91.818 E3.21113
G1 X92.926 Y91.552 E3.21892
G1 X93.276 Y91.241 E3.22826
G1 X93.705 Y90.876 E3.2395
G1 X93.857 Y90.749 E3.24346
G1 X94.161 Y90.5 E3.2513
G1 X94.275 Y90.408 E3.25422
G1 X94.864 Y89.939 E3.26925
G1 X95.321 Y89.595 E3.28066
G1 X95.595 Y89.4 E3.28737
G1 X95.847 Y89.226 E3.29348
G1 X96.137 Y89.032 E3.30045
G1 X96.604 Y88.737 E3.31147
G1 X97.359 Y88.287 E3.32901
G1 X97.612 Y88.141 E3.33484
G1 X98.211 Y87.806 E3.34854
G1 X98.666 Y87.566 E3.3588
G1 X99.026 Y87.387 E3.36682
G1 X99.345 Y87.235 E3.37388
G1 X99.757 Y87.047 E3.38291
G1 X100.175 Y86.866 E3.392
G1 X100.698 Y86.654 E3.40327
G1 X101.036 Y86.524 E3.41049
G1 X101.88 Y86.215 E3.42843
G1 X102.441 Y86.027 E3.44024
G1 X102.872 Y85.896 E3.44923
G1 X103.155 Y85.815 E3.4551
G1 X103.615 Y85.689 E3.46462
G1 X104.093 Y85.569 E3.47445
G1 X104.632 Y85.448 E3.48548
G1 X104.942 Y85.384 E3.49179
G1 X105.749 Y85.228 E3.5082
G1 X106.366 Y85.127 E3.52067
G1 X106.818 Y85.067 E3.52977
G1 X107.098 Y85.034 E3.5354
G1 X107.684 Y84.972 E3.54716
G1 X108.169 Y84.932 E3.55687
G1 X108.69 Y84.901 E3.56729
G1 X109.036 Y84.886 E3.5742
G1 X109.745 Y84.867 E3.58835
G1 X110.329 Y84.867 E3.60001
G1 X110.859 Y84.882 E3.61059
G1 X111.141 Y84.894 E3.61622
G1 X111.796 Y84.93 E3.62931
G1 X112.284 Y84.968 E3.63908
G1 X112.698 Y85.01 E3.64738
G1 X113.052 Y85.052 E3.6545
G1 X113.701 Y85.14 E3.66757
G1 X114.212 Y85.222 E3.67789
G1 X114.799 Y85.331 E3.68981
G1 X115.121 Y85.396 E3.69636
G1 X115.814 Y85.547 E3.71052
G1 X116.309 Y85.667 E3.72068
G1 X116.707 Y85.774 E3.72891
G1 X117.051 Y85.873 E3.73605
G1 X117.552 Y86.026 E3.7465
G1 X118.047 Y86.191 E3.75692
G1 X118.708 Y86.429 E3.77094
G1 X119.02 Y86.547 E3.77759
G1 X119.732 Y86.829 E3.79288
G1 X120.042 Y86.957 E3.79957
G1 X120.229 Y87.038 E3.80364
G1 X120.639 Y87.226 E3.81264
G1 X121.227 Y87.511 E3.82568
G1 X121.791 Y87.806 E3.83838
G1 X122.413 Y88.155 E3.85261
G1 X122.659 Y88.297 E3.85828
G1 X123.381 Y88.728 E3.87506
G1 X123.646 Y88.891 E3.88127
G1 X123.817 Y89 E3.88532
G1 X124.238 Y89.284 E3.89545
G1 X124.651 Y89.576 E3.90554
G1 X125.108 Y89.918 E3.91694
G1 X125.644 Y90.342 E3.93057
G1 X125.812 Y90.477 E3.93488
G1 X126.006 Y90.637 E3.93989
G1 X126.086 Y90.703 E3.94196
G1 X126.678 Y91.201 E3.9574
G1 X127.189 Y91.661 E3.97112
G1 X127.623 Y92.077 E3.98312
G1 X128.144 Y92.612 E3.99802
G1 X128.558 Y93.069 E4.01033
G1 X128.647 Y93.169 E4.013
G1 X128.957 Y93.52 E4.02234
G1 X129.044 Y93.62 E4.02499
G1 X129.491 Y94.139 E4.03866
G1 X130.238 Y95.115 E4.06319
G1 X130.688 Y95.78 E4.07921
G1 X130.789 Y95.933 E4.08287
G1 X131.287 Y96.697 E4.10107
G1 X131.368 Y96.824 E4.10407
G1 X131.742 Y97.416 E4.11805
G1 X132.2 Y98.214 E4.13641
G1 X132.403 Y98.63 E4.14565
G1 X132.653 Y99.171 E4.15754
G1 X132.739 Y99.362 E4.16172
G1 X133.166 Y100.336 E4.18294
G1 X133.227 Y100.477 E4.18601
G1 X133.516 Y101.163 E4.20086
G1 X133.836 Y102.026 E4.21923
G1 X133.97 Y102.475 E4.22858
G1 X134.123 Y103.033 E4.24013
G1 X134.177 Y103.238 E4.24436
G1 X134.447 Y104.306 E4.26634
G1 X134.477 Y104.43 E4.26889
G1 X134.645 Y105.13 E4.28326
G1 X134.821 Y106.034 E4.30163
G1 X134.884 Y106.54 E4.31181
G1 X134.939 Y107.085 E4.32274
G1 X134.956 Y107.261 E4.32627
G1 X135.052 Y108.403 E4.34914
G1 X135.064 Y108.567 E4.35242
G1 X135.112 Y109.268 E4.36644
G1 X135.117 Y110.638 E4.39378
G1 X135.08 Y111.244 E4.4059
G1 X135.067 Y111.432 E4.40966
G1 X134.989 Y112.42 E4.42944
G1 X134.976 Y112.571 E4.43246
G1 X134.913 Y113.246 E4.44599
G1 X134.744 Y114.386 E4.46899
G1 X134.682 Y114.689 E4.47516
G1 X134.608 Y115.024 E4.48201
G1 X134.316 Y116.248 E4.50712
G1 X134.274 Y116.414 E4.51054
G1 X134.096 Y117.11 E4.52487
G1 X133.75 Y118.213 E4.54794
G1 X133.629 Y118.535 E4.55481
G1 X133.5 Y118.859 E4.56177
G1 X133.058 Y119.927 E4.58483
G1 X132.999 Y120.069 E4.5879
G1 X132.684 Y120.8 E4.60379
G1 X132.141 Y121.885 E4.628
G1 X131.975 Y122.174 E4.63465
G1 X131.825 Y122.426 E4.6405
G1 X131.201 Y123.446 E4.66436
G1 X131.121 Y123.575 E4.66739
G1 X130.723 Y124.205 E4.68226
G1 X130.038 Y125.166 E4.70582
G1 X129.826 Y125.431 E4.71259
G1 X129.607 Y125.696 E4.71945
G1 X128.79 Y126.652 E4.74454
G1 X128.686 Y126.771 E4.7477
G1 X128.25 Y127.266 E4.76086
G1 X127.909 Y127.635 E4.77089
G1 X127.754 Y127.795 E4.77533
G1 X127.374 Y128.169 E4.78597
G1 X127.089 Y128.435 E4.79375
G1 X126.716 Y128.767 E4.80372
G1 X126.286 Y129.132 E4.81498
G1 X126.146 Y129.249 E4.81862
G1 X125.852 Y129.49 E4.8262
G1 X125.738 Y129.582 E4.82913
G1 X125.147 Y130.053 E4.84421
G1 X124.693 Y130.395 E4.85555
G1 X124.411 Y130.596 E4.86246
G1 X124.153 Y130.774 E4.86872
G1 X123.863 Y130.968 E4.87568
G1 X123.397 Y131.263 E4.88669
G1 X122.659 Y131.703 E4.90383
G1 X122.411 Y131.846 E4.90954
G1 X121.795 Y132.191 E4.92363
G1 X121.334 Y132.434 E4.93403
G1 X120.974 Y132.613 E4.94206
G1 X120.655 Y132.765 E4.94911
G1 X120.243 Y132.953 E4.95815
G1 X119.825 Y133.134 E4.96724
G1 X119.302 Y133.346 E4.9785
G1 X118.967 Y133.475 E4.98566
G1 X118.132 Y133.781 E5.00341
G1 X117.573 Y133.968 E5.01517
G1 X117.133 Y134.102 E5.02435
G1 X116.845 Y134.185 E5.03033
G1 X116.385 Y134.311 E5.03985
G1 X115.907 Y134.431 E5.04969
G1 X115.368 Y134.552 E5.06071
G1 X115.058 Y134.616 E5.06703
G1 X114.251 Y134.772 E5.08343
G1 X113.634 Y134.873 E5.09591
G1 X113.182 Y134.933 E5.10501
G1 X112.902 Y134.966 E5.11063
G1 X112.316 Y135.028 E5.12239
G1 X111.831 Y135.068 E5.1321
G1 X111.31 Y135.099 E5.14252
G1 X110.971 Y135.114 E5.14929
G1 X110.28 Y135.133 E5.16308
G1 X109.699 Y135.133 E5.17468
G1 X109.151 Y135.118 E5.18562
G1 X108.859 Y135.106 E5.19145
G1 X108.204 Y135.07 E5.20454
G1 X107.716 Y135.032 E5.21431
G1 X107.302 Y134.99 E5.22261
G1 X106.948 Y134.948 E5.22973
G1 X106.299 Y134.86 E5.2428
G1 X105.788 Y134.778 E5.25313
G1 X105.201 Y134.669 E5.26504
G1 X104.879 Y134.604 E5.2716
G1 X104.186 Y134.453 E5.28575
G1 X103.691 Y134.333 E5.29591
G1 X103.293 Y134.226 E5.30414
G1 X102.949 Y134.127 E5.31128
G1 X102.448 Y133.974 E5.32174
G1 X101.953 Y133.809 E5.33215
G1 X101.292 Y133.571 E5.34617
G1 X100.98 Y133.453 E5.35283
G1 X100.268 Y133.171 E5.36811
G1 X99.958 Y133.043 E5.3748
G1 X99.771 Y132.962 E5.37887
G1 X99.361 Y132.774 E5.38787
G1 X98.773 Y132.489 E5.40091
G1 X98.21 Y132.195 E5.41358
G1 X97.57 Y131.836 E5.42823
G1 X97.316 Y131.688 E5.4341
G1 X96.612 Y131.267 E5.45046
G1 X96.354 Y131.109 E5.4565
G1 X96.183 Y131 E5.46055
G1 X95.771 Y130.723 E5.47046
G1 X95.34 Y130.419 E5.48098
G1 X94.811 Y130.021 E5.49419
G1 X94.099 Y129.449 E5.51242
G1 X93.913 Y129.296 E5.51722
G1 X93.32 Y128.797 E5.53269
G1 X92.801 Y128.329 E5.54664
G1 X92.366 Y127.911 E5.55868
G1 X91.868 Y127.4 E5.57292
G1 X91.456 Y126.947 E5.58514
G1 X91.354 Y126.833 E5.58819
