;FLAVOR:Marlin
;TIME:1201
;Filament used: 0.727386m
;Layer height: 0.16
;MINX:84.493
;MINY:84.487
;MINZ:0.2
;MAXX:135.509
;MAXY:135.509
;MAXZ:7.12
;Generated with Cura_SteamEngine 4.3.0
M140 S80
M105
M190 S80
M104 S240
M105
M109 S240
M82 ;absolute extrusion mode
M201 X500.00 Y500.00 Z100.00 E5000.00 ;Setup machine max acceleration
M203 X500.00 Y500.00 Z10.00 E50.00 ;Setup machine max feedrate
M204 P500.00 R1000.00 T500.00 ;Setup Print/Retract/Travel acceleration
M205 X8.00 Y8.00 Z0.40 E5.00 ;Setup Jerk
M220 S100 ;Reset Feedrate
M221 S100 ;Reset Flowrate

G28 ;Home

G92 E0 ;Reset Extruder
G1 Z2.0 F3000 ;Move Z Axis up
G1 X10.1 Y20 Z0.28 F5000.0 ;Move to start position
G1 X10.1 Y200.0 Z0.28 F1500.0 E15 ;Draw the first line
G1 X10.4 Y200.0 Z0.28 F5000.0 ;Move to side a little
G1 X10.4 Y20 Z0.28 F1500.0 E30 ;Draw the second line
G92 E0 ;Reset Extruder
G1 Z2.0 F3000 ;Move Z Axis up

G92 E0
G92 E0
G1 F2700 E-5
;LAYER_COUNT:40
;LAYER:0
M107
G0 F6000 X91.688 Y92.239 Z0.2
;TYPE:SKIRT
G1 F2700 E0
G1 F900 X92.096 Y91.846 E0.01884
G1 X92.593 Y91.392 E0.04123
G1 X92.748 Y91.253 E0.04816
G1 X93.61 Y90.495 E0.08633
G1 X93.724 Y90.397 E0.09133
G1 X94.201 Y89.989 E0.11221
G1 X94.939 Y89.41 E0.14341
G1 X95.375 Y89.113 E0.16096
G1 X95.97 Y88.728 E0.18453
G1 X96.167 Y88.603 E0.19229
G1 X97.006 Y88.085 E0.22508
G1 X97.145 Y88.001 E0.23048
G1 X97.773 Y87.626 E0.25481
G1 X98.831 Y87.07 E0.29456
G1 X99.034 Y86.977 E0.30199
G1 X99.312 Y86.854 E0.3121
G1 X99.566 Y86.746 E0.32128
G1 X99.66 Y86.706 E0.32468
G1 X100.657 Y86.293 E0.36057
G1 X100.795 Y86.237 E0.36553
G1 X101.445 Y85.978 E0.3888
G1 X102.644 Y85.579 E0.43083
G1 X102.936 Y85.5 E0.44089
G1 X103.235 Y85.423 E0.45116
G1 X104.469 Y85.126 E0.49337
G1 X104.615 Y85.092 E0.49836
G1 X105.291 Y84.939 E0.52141
G1 X106.532 Y84.732 E0.56326
G1 X106.836 Y84.699 E0.57343
G1 X107.147 Y84.67 E0.58382
G1 X108.386 Y84.571 E0.62516
G1 X108.557 Y84.559 E0.63086
G1 X109.304 Y84.511 E0.65576
G1 X109.901 Y84.489 E0.67562
G1 X110.104 Y84.487 E0.68238
G1 X110.595 Y84.493 E0.69871
G1 X110.968 Y84.506 E0.71112
G1 X111.281 Y84.521 E0.72154
G1 X111.486 Y84.534 E0.72838
G1 X111.769 Y84.556 E0.73782
G1 X112.127 Y84.588 E0.74977
G1 X112.258 Y84.6 E0.75415
G1 X112.682 Y84.643 E0.76832
G1 X112.823 Y84.658 E0.77304
G1 X113.522 Y84.738 E0.79644
G1 X114.13 Y84.825 E0.81687
G1 X114.509 Y84.89 E0.82966
G1 X114.812 Y84.947 E0.83991
G1 X115.231 Y85.031 E0.85412
G1 X115.802 Y85.161 E0.8736
G1 X116.574 Y85.359 E0.90011
G1 X116.843 Y85.432 E0.90938
G1 X117.481 Y85.613 E0.93144
G1 X118.099 Y85.808 E0.95299
G1 X118.584 Y85.977 E0.97007
G1 X118.861 Y86.077 E0.97987
G1 X119.315 Y86.249 E0.99602
G1 X119.798 Y86.446 E1.01337
G1 X120.314 Y86.67 E1.03208
G1 X120.64 Y86.817 E1.04397
G1 X121.276 Y87.118 E1.06737
G1 X121.784 Y87.375 E1.08631
G1 X122.332 Y87.67 E1.10701
G1 X122.645 Y87.846 E1.11895
G1 X123.113 Y88.118 E1.13696
G1 X123.524 Y88.369 E1.15297
G1 X123.945 Y88.639 E1.16961
G1 X124.253 Y88.843 E1.18189
G1 X124.772 Y89.201 E1.20287
G1 X125.282 Y89.575 E1.2239
G1 X125.805 Y89.982 E1.24594
G1 X126.045 Y90.174 E1.25616
G1 X126.591 Y90.624 E1.2797
G1 X126.935 Y90.92 E1.29479
G1 X127.185 Y91.144 E1.30596
G1 X127.486 Y91.424 E1.31963
G1 X127.893 Y91.817 E1.33845
G1 X128.32 Y92.253 E1.35874
G1 X128.851 Y92.826 E1.38473
G1 X129.112 Y93.118 E1.39775
G1 X129.753 Y93.861 E1.43039
G1 X130.229 Y94.453 E1.45566
G1 X130.53 Y94.855 E1.47236
G1 X130.924 Y95.417 E1.49519
G1 X131.48 Y96.265 E1.52891
G1 X131.633 Y96.505 E1.53838
G1 X132.007 Y97.109 E1.56201
G1 X132.606 Y98.212 E1.60376
G1 X132.973 Y98.991 E1.6324
G1 X133.045 Y99.147 E1.63811
G1 X133.414 Y99.963 E1.6679
G1 X133.478 Y100.107 E1.67314
G1 X133.769 Y100.776 E1.6974
G1 X134.106 Y101.652 E1.72862
G1 X134.288 Y102.245 E1.74925
G1 X134.479 Y102.939 E1.77319
G1 X134.516 Y103.08 E1.77804
G1 X134.788 Y104.122 E1.81386
G1 X134.829 Y104.282 E1.81935
G1 X134.978 Y104.89 E1.84017
G1 X135.162 Y105.809 E1.87135
G1 X135.233 Y106.353 E1.88959
G1 X135.316 Y107.139 E1.91588
G1 X135.338 Y107.368 E1.92353
G1 X135.417 Y108.303 E1.95474
G1 X135.428 Y108.441 E1.95935
G1 X135.482 Y109.193 E1.98442
G1 X135.509 Y110.131 E2.01563
G1 X135.492 Y110.612 E2.03164
G1 X135.465 Y111.082 E2.0473
G1 X135.451 Y111.295 E2.0544
G1 X135.363 Y112.438 E2.09253
G1 X135.349 Y112.599 E2.0979
G1 X135.29 Y113.242 E2.11938
G1 X135.134 Y114.336 E2.15613
G1 X135.072 Y114.655 E2.16694
G1 X134.972 Y115.115 E2.1826
G1 X134.684 Y116.319 E2.22378
G1 X134.643 Y116.486 E2.22949
G1 X134.457 Y117.213 E2.25445
G1 X134.093 Y118.368 E2.29473
G1 X133.978 Y118.673 E2.30557
G1 X133.849 Y118.999 E2.31723
G1 X133.368 Y120.161 E2.35906
G1 X133.303 Y120.314 E2.36459
G1 X133.031 Y120.944 E2.38741
G1 X132.483 Y122.042 E2.42823
G1 X132.323 Y122.322 E2.43896
G1 X132.155 Y122.604 E2.44987
G1 X131.531 Y123.624 E2.48964
G1 X131.452 Y123.752 E2.49465
G1 X131.037 Y124.41 E2.52052
G1 X130.639 Y124.998 E2.54414
G1 X130.502 Y125.187 E2.5519
G1 X130.213 Y125.569 E2.56783
G1 X129.917 Y125.942 E2.58367
G1 X129.747 Y126.15 E2.59261
G1 X129.591 Y126.337 E2.60071
G1 X129.351 Y126.615 E2.61292
G1 X128.928 Y127.089 E2.63405
G1 X128.807 Y127.223 E2.64006
G1 X128.368 Y127.699 E2.66159
G1 X127.919 Y128.158 E2.68295
G1 X127.551 Y128.513 E2.69996
G1 X127.344 Y128.708 E2.70941
G1 X127.011 Y129.013 E2.72443
G1 X126.603 Y129.368 E2.74242
G1 X126.222 Y129.684 E2.75888
G1 X125.98 Y129.879 E2.76922
G1 X125.322 Y130.394 E2.79701
G1 X124.782 Y130.791 E2.8193
G1 X124.287 Y131.132 E2.8393
G1 X124.065 Y131.281 E2.84819
G1 X123.632 Y131.564 E2.86539
G1 X123.159 Y131.856 E2.88388
G1 X122.717 Y132.114 E2.9009
G1 X122.408 Y132.288 E2.9127
G1 X121.826 Y132.603 E2.93471
G1 X121.294 Y132.873 E2.95455
G1 X120.7 Y133.154 E2.97641
G1 X120.406 Y133.287 E2.98714
G1 X119.821 Y133.543 E3.00838
G1 X119.383 Y133.724 E3.02414
G1 X119.024 Y133.863 E3.03695
G1 X118.642 Y134.003 E3.05048
G1 X118.057 Y134.205 E3.07106
G1 X117.489 Y134.384 E3.09087
G1 X116.873 Y134.56 E3.11218
G1 X116.583 Y134.638 E3.12217
G1 X115.803 Y134.838 E3.14895
G1 X115.402 Y134.933 E3.16266
G1 X115.093 Y135 E3.17317
G1 X114.588 Y135.097 E3.19028
G1 X114.089 Y135.181 E3.20711
G1 X113.465 Y135.268 E3.22806
G1 X112.492 Y135.375 E3.26062
G1 X112.247 Y135.399 E3.26881
G1 X111.594 Y135.456 E3.29061
G1 X110.878 Y135.495 E3.31446
G1 X110.238 Y135.509 E3.33575
G1 X109.461 Y135.499 E3.36159
G1 X108.785 Y135.466 E3.3841
G1 X108.612 Y135.456 E3.38987
G1 X108.163 Y135.427 E3.40483
G1 X108.017 Y135.417 E3.4097
G1 X107.35 Y135.365 E3.43195
G1 X106.072 Y135.189 E3.47486
G1 X105.146 Y135.006 E3.50625
G1 X104.96 Y134.968 E3.51257
G1 X104.144 Y134.792 E3.54033
G1 X103.993 Y134.758 E3.54548
G1 X103.277 Y134.593 E3.56992
G1 X102.373 Y134.344 E3.60111
G1 X101.808 Y134.145 E3.62103
G1 X101.177 Y133.903 E3.64351
G1 X101.009 Y133.837 E3.64951
G1 X100.015 Y133.437 E3.68515
G1 X99.873 Y133.378 E3.69026
G1 X99.214 Y133.102 E3.71403
G1 X98.365 Y132.703 E3.74523
G1 X97.888 Y132.439 E3.76336
G1 X97.342 Y132.118 E3.78442
G1 X97.183 Y132.023 E3.79059
G1 X96.366 Y131.524 E3.82243
G1 X96.255 Y131.455 E3.82677
G1 X95.622 Y131.058 E3.85163
G1 X94.606 Y130.337 E3.89306
G1 X94.403 Y130.175 E3.9017
G1 X94.133 Y129.952 E3.91335
G1 X93.177 Y129.138 E3.95511
G1 X93.046 Y129.025 E3.96086
G1 X92.468 Y128.517 E3.98646
G1 X91.561 Y127.622 E4.02884
G1 X91.368 Y127.408 E4.03842
G1 X91.174 Y127.187 E4.0482
G1 X90.358 Y126.232 E4.08998
G1 X90.258 Y126.113 E4.09515
G1 X89.803 Y125.565 E4.11884
G1 X89.102 Y124.623 E4.1579
G1 X88.932 Y124.367 E4.16812
G1 X88.718 Y124.031 E4.18137
G1 X88.067 Y122.969 E4.2228
G1 X87.981 Y122.827 E4.22832
G1 X87.606 Y122.194 E4.25279
G1 X87.322 Y121.684 E4.27221
G1 X87.219 Y121.487 E4.2796
G1 X86.982 Y121.006 E4.29743
G1 X86.792 Y120.595 E4.31249
G1 X86.594 Y120.14 E4.329
G1 X86.377 Y119.609 E4.34808
G1 X86.311 Y119.443 E4.35402
G1 X86.189 Y119.13 E4.36519
G1 X86.117 Y118.939 E4.37198
G1 X85.883 Y118.304 E4.39449
G1 X85.694 Y117.748 E4.41402
G1 X85.571 Y117.35 E4.42788
G1 X85.478 Y117.031 E4.43893
G1 X85.349 Y116.564 E4.45504
G1 X85.224 Y116.065 E4.47215
G1 X85.096 Y115.5 E4.49142
G1 X85.03 Y115.188 E4.50203
G1 X84.876 Y114.403 E4.52863
G1 X84.771 Y113.771 E4.54994
G1 X84.696 Y113.221 E4.56841
G1 X84.658 Y112.907 E4.57893
G1 X84.604 Y112.403 E4.59578
G1 X84.563 Y111.923 E4.61181
G1 X84.532 Y111.431 E4.6282
G1 X84.515 Y111.067 E4.64032
G1 X84.493 Y110.329 E4.66488
G1 X84.493 Y109.682 E4.6864
G1 X84.511 Y109.062 E4.70703
G1 X84.524 Y108.747 E4.71752
G1 X84.56 Y108.123 E4.7383
G1 X84.597 Y107.654 E4.75395
G1 X84.635 Y107.277 E4.76655
G1 X84.679 Y106.909 E4.77888
G1 X84.767 Y106.257 E4.80076
G1 X84.869 Y105.635 E4.82173
G1 X85.006 Y104.928 E4.84568
G1 X85.069 Y104.625 E4.85597
G1 X85.221 Y103.944 E4.87918
G1 X85.332 Y103.493 E4.89463
G1 X85.414 Y103.187 E4.90517
G1 X85.524 Y102.805 E4.91839
G1 X85.684 Y102.284 E4.93651
G1 X85.9 Y101.649 E4.95882
G1 X86.223 Y100.788 E4.98941
G1 X86.317 Y100.546 E4.99804
G1 X86.558 Y99.947 E5.01952
G1 X86.689 Y99.636 E5.03074
G1 X86.771 Y99.449 E5.03753
G1 X86.985 Y98.99 E5.05438
G1 X87.212 Y98.531 E5.07141
G1 X87.546 Y97.907 E5.09495
G1 X88.076 Y96.989 E5.13021
G1 X88.197 Y96.784 E5.13812
G1 X88.55 Y96.202 E5.16076
G1 X89.285 Y95.138 E5.20377
G1 X89.837 Y94.431 E5.23361
G1 X89.953 Y94.285 E5.23981
G1 X90.531 Y93.57 E5.27039
G1 X90.628 Y93.451 E5.2755
G1 X91.058 Y92.934 E5.29786
G1 X91.688 Y92.239 E5.32906
G0 F6000 X91.984 Y92.508
G1 F900 X92.366 Y92.142 E5.34666
G1 X92.863 Y91.688 E5.36905
G1 X93.012 Y91.554 E5.37571
G1 X93.874 Y90.796 E5.41389
G1 X93.984 Y90.701 E5.41872
G1 X94.461 Y90.293 E5.4396
G1 X95.186 Y89.725 E5.47023
G1 X95.593 Y89.449 E5.48659
G1 X96.188 Y89.064 E5.51016
G1 X96.377 Y88.944 E5.51761
G1 X97.216 Y88.426 E5.5504
G1 X97.351 Y88.344 E5.55566
G1 X97.979 Y87.969 E5.57998
G1 X98.998 Y87.433 E5.61828
G1 X99.201 Y87.34 E5.6257
G1 X99.468 Y87.222 E5.63541
G1 X99.722 Y87.114 E5.64459
G1 X99.813 Y87.076 E5.64787
G1 X100.81 Y86.663 E5.68377
G1 X100.943 Y86.609 E5.68854
G1 X101.593 Y86.35 E5.71181
G1 X102.749 Y85.965 E5.75234
G1 X103.041 Y85.886 E5.7624
G1 X103.329 Y85.812 E5.77229
G1 X104.563 Y85.515 E5.8145
G1 X104.703 Y85.482 E5.81929
G1 X105.379 Y85.329 E5.84234
G1 X106.575 Y85.13 E5.88267
G1 X106.879 Y85.097 E5.89284
G1 X107.179 Y85.069 E5.90286
G1 X108.418 Y84.97 E5.9442
G1 X108.582 Y84.958 E5.94967
G1 X109.329 Y84.91 E5.97457
G1 X109.905 Y84.889 E5.99374
G1 X110.108 Y84.887 E6.00049
G1 X110.581 Y84.892 E6.01622
G1 X110.954 Y84.905 E6.02863
G1 X111.256 Y84.92 E6.03869
G1 X111.461 Y84.933 E6.04552
G1 X111.734 Y84.954 E6.05463
G1 X112.092 Y84.986 E6.06658
G1 X112.218 Y84.998 E6.07079
G1 X112.642 Y85.041 E6.08497
G1 X112.777 Y85.056 E6.08949
G1 X113.476 Y85.136 E6.11289
G1 X114.063 Y85.22 E6.13261
G1 X114.442 Y85.285 E6.1454
G1 X114.734 Y85.339 E6.15528
G1 X115.153 Y85.423 E6.16949
G1 X115.702 Y85.548 E6.18822
G1 X116.474 Y85.746 E6.21472
G1 X116.734 Y85.816 E6.22368
G1 X117.372 Y85.997 E6.24574
G1 X117.967 Y86.185 E6.26649
G1 X118.452 Y86.354 E6.28357
G1 X118.719 Y86.452 E6.29303
G1 X119.173 Y86.624 E6.30918
G1 X119.639 Y86.813 E6.32591
G1 X120.155 Y87.037 E6.34462
G1 X120.468 Y87.179 E6.35605
G1 X121.104 Y87.48 E6.37945
G1 X121.594 Y87.727 E6.3977
G1 X122.142 Y88.022 E6.4184
G1 X122.444 Y88.191 E6.42991
G1 X122.912 Y88.463 E6.44792
G1 X123.308 Y88.705 E6.46335
G1 X123.729 Y88.975 E6.47999
G1 X124.026 Y89.172 E6.49184
G1 X124.545 Y89.53 E6.51281
G1 X125.036 Y89.891 E6.53308
G1 X125.559 Y90.298 E6.55512
G1 X125.791 Y90.483 E6.56499
G1 X126.337 Y90.933 E6.58852
G1 X126.669 Y91.218 E6.60308
G1 X126.919 Y91.442 E6.61424
G1 X127.208 Y91.712 E6.6274
G1 X127.615 Y92.105 E6.64621
G1 X128.027 Y92.525 E6.66578
G1 X128.558 Y93.098 E6.69177
G1 X128.809 Y93.379 E6.7043
G1 X129.45 Y94.122 E6.73693
G1 X129.909 Y94.693 E6.7613
G1 X130.21 Y95.095 E6.778
G1 X130.59 Y95.636 E6.79999
G1 X131.146 Y96.484 E6.83372
G1 X131.293 Y96.716 E6.84286
G1 X131.667 Y97.32 E6.86648
G1 X132.244 Y98.382 E6.90668
G1 X132.611 Y99.161 E6.93532
G1 X132.68 Y99.311 E6.94082
G1 X133.049 Y100.127 E6.9706
G1 X133.111 Y100.267 E6.97569
G1 X133.402 Y100.936 E6.99996
G1 X133.732 Y101.795 E7.03057
G1 X133.902 Y102.351 E7.0499
G1 X134.093 Y103.045 E7.07384
G1 X134.129 Y103.181 E7.07852
G1 X134.401 Y104.223 E7.11434
G1 X134.44 Y104.377 E7.11962
G1 X134.589 Y104.985 E7.14045
G1 X134.769 Y105.888 E7.17107
G1 X134.835 Y106.395 E7.18808
G1 X134.918 Y107.181 E7.21436
G1 X134.939 Y107.402 E7.22175
G1 X135.018 Y108.337 E7.25296
G1 X135.029 Y108.47 E7.25739
G1 X135.083 Y109.222 E7.28247
G1 X135.093 Y110.589 E7.32794
G1 X135.066 Y111.059 E7.3436
G1 X135.052 Y111.265 E7.35046
G1 X134.964 Y112.408 E7.38859
G1 X134.951 Y112.563 E7.39377
G1 X134.892 Y113.206 E7.41524
G1 X134.741 Y114.259 E7.45062
G1 X134.679 Y114.578 E7.46143
G1 X134.583 Y115.022 E7.47654
G1 X134.295 Y116.226 E7.51772
G1 X134.255 Y116.387 E7.52323
G1 X134.069 Y117.114 E7.54819
G1 X133.718 Y118.227 E7.58701
G1 X133.603 Y118.532 E7.59785
G1 X133.479 Y118.846 E7.60908
G1 X132.998 Y120.008 E7.65091
G1 X132.936 Y120.156 E7.65624
G1 X132.664 Y120.786 E7.67907
G1 X132.135 Y121.843 E7.71838
G1 X131.975 Y122.123 E7.72911
G1 X131.814 Y122.396 E7.73965
G1 X131.19 Y123.416 E7.77942
G1 X131.114 Y123.539 E7.78423
G1 X130.699 Y124.197 E7.8101
G1 X130.315 Y124.763 E7.83285
G1 X130.178 Y124.952 E7.84061
G1 X129.899 Y125.32 E7.85597
G1 X129.603 Y125.693 E7.87181
G1 X129.44 Y125.894 E7.88042
G1 X129.284 Y126.081 E7.88852
G1 X129.053 Y126.349 E7.90029
G1 X128.63 Y126.823 E7.92142
G1 X128.513 Y126.951 E7.92718
G1 X128.074 Y127.427 E7.94872
G1 X127.641 Y127.87 E7.96932
G1 X127.273 Y128.225 E7.98633
G1 X127.073 Y128.413 E7.99546
G1 X126.74 Y128.718 E8.01048
G1 X126.348 Y129.06 E8.02778
G1 X125.967 Y129.376 E8.04425
G1 X125.733 Y129.564 E8.05423
G1 X125.075 Y130.079 E8.08202
G1 X124.555 Y130.461 E8.10348
G1 X124.06 Y130.802 E8.12347
G1 X123.846 Y130.946 E8.13205
G1 X123.413 Y131.229 E8.14926
G1 X122.958 Y131.511 E8.16706
G1 X122.516 Y131.769 E8.18408
G1 X122.218 Y131.936 E8.19545
G1 X121.636 Y132.251 E8.21746
G1 X121.123 Y132.511 E8.23659
G1 X120.529 Y132.792 E8.25844
G1 X120.246 Y132.921 E8.26879
G1 X119.661 Y133.177 E8.29002
G1 X119.238 Y133.351 E8.30524
G1 X118.879 Y133.49 E8.31804
G1 X118.512 Y133.624 E8.33104
G1 X117.927 Y133.826 E8.35162
G1 X117.379 Y133.999 E8.37073
G1 X116.763 Y134.175 E8.39204
G1 X116.484 Y134.251 E8.40166
G1 X115.704 Y134.451 E8.42844
G1 X115.317 Y134.542 E8.44166
G1 X115.008 Y134.609 E8.45218
G1 X114.522 Y134.703 E8.46864
G1 X114.023 Y134.787 E8.48547
G1 X113.422 Y134.87 E8.50565
G1 X112.449 Y134.977 E8.53821
G1 X112.212 Y135.001 E8.54613
G1 X111.559 Y135.058 E8.56794
G1 X110.869 Y135.095 E8.59092
G1 X110.229 Y135.109 E8.61221
G1 X109.48 Y135.099 E8.63712
G1 X108.804 Y135.066 E8.65963
G1 X108.638 Y135.057 E8.66516
G1 X108.189 Y135.028 E8.68013
G1 X108.048 Y135.018 E8.68483
G1 X107.381 Y134.966 E8.70708
G1 X106.15 Y134.797 E8.74841
G1 X105.224 Y134.614 E8.7798
G1 X105.044 Y134.577 E8.78592
G1 X104.228 Y134.401 E8.81368
G1 X104.083 Y134.368 E8.81863
G1 X103.367 Y134.203 E8.84306
G1 X102.479 Y133.958 E8.8737
G1 X101.951 Y133.771 E8.89233
G1 X101.32 Y133.529 E8.91481
G1 X101.159 Y133.466 E8.92056
G1 X100.165 Y133.066 E8.9562
G1 X100.027 Y133.009 E8.96116
G1 X99.368 Y132.733 E8.98493
G1 X98.535 Y132.341 E9.01555
G1 X98.091 Y132.094 E9.03245
G1 X97.545 Y131.773 E9.05351
G1 X97.392 Y131.681 E9.05945
G1 X96.575 Y131.182 E9.09129
G1 X96.468 Y131.116 E9.09547
G1 X95.835 Y130.719 E9.12032
G1 X94.855 Y130.024 E9.16028
G1 X94.652 Y129.862 E9.16892
G1 X94.392 Y129.648 E9.18012
G1 X93.436 Y128.834 E9.22188
G1 X93.31 Y128.725 E9.22742
G1 X92.732 Y128.217 E9.25302
G1 X91.858 Y127.354 E9.29387
G1 X91.665 Y127.14 E9.30346
G1 X91.478 Y126.927 E9.31288
G1 X90.662 Y125.972 E9.35466
G1 X90.566 Y125.857 E9.35964
G1 X90.111 Y125.309 E9.38334
G1 X89.436 Y124.402 E9.42094
G1 X89.266 Y124.146 E9.43116
G1 X89.059 Y123.822 E9.44395
G1 X88.408 Y122.76 E9.48538
G1 X88.325 Y122.623 E9.49071
G1 X87.95 Y121.99 E9.51518
G1 X87.676 Y121.498 E9.53391
G1 X87.573 Y121.301 E9.5413
G1 X87.345 Y120.838 E9.55847
G1 X87.155 Y120.427 E9.57353
G1 X86.965 Y119.989 E9.58941
G1 X86.748 Y119.458 E9.60849
G1 X86.684 Y119.298 E9.61422
