;FLAVOR:Marlin
;TIME:1276
;Filament used: 0.786167m
;Layer height: 0.16
;MINX:84.138
;MINY:84.131
;MINZ:0.2
;MAXX:135.861
;MAXY:135.869
;MAXZ:7.48
;Generated with Cura_SteamEngine 4.3.0
M140 S80
M105
M190 S80
M104 S240
M105
M109 S240
M82 ;absolute extrusion mode
M201 X500.00 Y500.00 Z100.00 E5000.00 ;Setup machine max acceleration
M203 X500.00 Y500.00 Z10.00 E50.00 ;Setup machine max feedrate
M204 P500.00 R1000.00 T500.00 ;Setup Print/Retract/Travel acceleration
M205 X8.00 Y8.00 Z0.40 E5.00 ;Setup Jerk
M220 S100 ;Reset Feedrate
M221 S100 ;Reset Flowrate

G28 ;Home

G92 E0 ;Reset Extruder
G1 Z2.0 F3000 ;Move Z Axis up
G1 X10.1 Y20 Z0.28 F5000.0 ;Move to start position
G1 X10.1 Y200.0 Z0.28 F1500.0 E15 ;Draw the first line
G1 X10.4 Y200.0 Z0.28 F5000.0 ;Move to side a little
G1 X10.4 Y20 Z0.28 F1500.0 E30 ;Draw the second line
G92 E0 ;Reset Extruder
G1 Z2.0 F3000 ;Move Z Axis up

G92 E0
G92 E0
G1 F2700 E-5
;LAYER_COUNT:41
;LAYER:0
M107
G0 F6000 X91.708 Y91.703 Z0.2
;TYPE:SKIRT
G1 F2700 E0
G1 F900 X91.903 Y91.509 E0.00915
G1 X92.086 Y91.331 E0.01764
G1 X92.325 Y91.104 E0.0286
G1 X92.856 Y90.631 E0.05225
G1 X93.686 Y89.939 E0.0882
G1 X93.87 Y89.789 E0.09609
G1 X94.404 Y89.363 E0.11881
G1 X94.892 Y88.996 E0.13912
G1 X95.172 Y88.797 E0.15055
G1 X95.442 Y88.61 E0.16147
G1 X95.775 Y88.388 E0.17478
G1 X96.194 Y88.123 E0.19127
G1 X96.668 Y87.837 E0.20968
G1 X96.851 Y87.728 E0.21677
G1 X97.168 Y87.545 E0.22894
G1 X97.295 Y87.474 E0.23378
G1 X97.872 Y87.151 E0.25578
G1 X98.361 Y86.893 E0.27416
G1 X98.7 Y86.725 E0.28675
G1 X99.027 Y86.569 E0.2988
G1 X99.495 Y86.356 E0.3159
G1 X100.045 Y86.124 E0.33575
G1 X100.771 Y85.84 E0.36168
G1 X100.981 Y85.76 E0.36916
G1 X101.533 Y85.557 E0.38872
G1 X102.165 Y85.346 E0.41088
G1 X102.894 Y85.127 E0.4362
G1 X103.15 Y85.054 E0.44505
G1 X103.46 Y84.969 E0.45574
G1 X104.031 Y84.828 E0.4753
G1 X104.693 Y84.684 E0.49784
G1 X104.953 Y84.631 E0.50666
G1 X105.582 Y84.51 E0.52797
G1 X106.185 Y84.411 E0.54829
G1 X106.754 Y84.334 E0.56739
G1 X107.09 Y84.294 E0.57864
G1 X107.628 Y84.238 E0.59663
G1 X107.946 Y84.21 E0.60725
G1 X108.173 Y84.193 E0.61482
G1 X108.403 Y84.178 E0.62249
G1 X108.682 Y84.163 E0.63178
G1 X108.975 Y84.151 E0.64154
G1 X109.714 Y84.131 E0.66612
G1 X110.291 Y84.131 E0.68531
G1 X110.843 Y84.145 E0.70368
G1 X111.18 Y84.158 E0.7149
G1 X111.858 Y84.196 E0.73748
G1 X112.332 Y84.233 E0.7533
G1 X112.774 Y84.277 E0.76807
G1 X113.139 Y84.32 E0.78029
G1 X113.716 Y84.397 E0.79965
G1 X114.353 Y84.501 E0.82112
G1 X115.241 Y84.673 E0.85121
G1 X115.482 Y84.722 E0.85939
G1 X115.998 Y84.834 E0.87695
G1 X116.533 Y84.964 E0.89526
G1 X116.907 Y85.065 E0.90814
G1 X117.232 Y85.159 E0.9194
G1 X117.776 Y85.324 E0.9383
G1 X118.391 Y85.53 E0.95988
G1 X119.196 Y85.827 E0.98842
G1 X119.426 Y85.915 E0.99661
G1 X119.991 Y86.138 E1.01681
G1 X120.454 Y86.333 E1.03352
G1 X120.784 Y86.481 E1.04555
G1 X121.123 Y86.64 E1.058
G1 X121.574 Y86.861 E1.07471
G1 X122.123 Y87.15 E1.09534
G1 X122.897 Y87.585 E1.12487
G1 X123.149 Y87.73 E1.13454
G1 X123.745 Y88.086 E1.15763
G1 X124.305 Y88.445 E1.17976
G1 X124.913 Y88.86 E1.20424
G1 X125.587 Y89.358 E1.23211
G1 X126.43 Y90.033 E1.26803
G1 X126.656 Y90.219 E1.27777
G1 X127.147 Y90.634 E1.29915
G1 X127.523 Y90.967 E1.31585
G1 X127.782 Y91.207 E1.3276
G1 X128.384 Y91.81 E1.35594
G1 X129.296 Y92.797 E1.40063
G1 X129.541 Y93.071 E1.41286
G1 X130.042 Y93.651 E1.43835
G1 X130.827 Y94.676 E1.48129
G1 X131.311 Y95.391 E1.51001
G1 X131.413 Y95.544 E1.51613
G1 X131.902 Y96.293 E1.54588
G1 X131.974 Y96.405 E1.5503
G1 X132.363 Y97.017 E1.57442
G1 X132.832 Y97.83 E1.60564
G1 X133.1 Y98.379 E1.62596
G1 X133.394 Y99.028 E1.64966
G1 X133.445 Y99.143 E1.65384
G1 X133.861 Y100.09 E1.68824
G1 X133.918 Y100.222 E1.69303
G1 X134.196 Y100.878 E1.71672
G1 X134.525 Y101.756 E1.74791
G1 X134.692 Y102.317 E1.76738
G1 X134.855 Y102.924 E1.78828
G1 X134.893 Y103.072 E1.79336
G1 X135.147 Y104.073 E1.82771
G1 X135.184 Y104.22 E1.83275
G1 X135.37 Y104.998 E1.85936
G1 X135.548 Y105.919 E1.89056
G1 X135.618 Y106.482 E1.90943
G1 X135.679 Y107.104 E1.93022
G1 X135.695 Y107.275 E1.93593
G1 X135.787 Y108.392 E1.9732
G1 X135.798 Y108.537 E1.97804
G1 X135.846 Y109.232 E2.00121
G1 X135.861 Y110.475 E2.04256
G1 X135.85 Y110.724 E2.05085
G1 X135.829 Y111.073 E2.06248
G1 X135.726 Y112.428 E2.10767
G1 X135.713 Y112.593 E2.11318
G1 X135.646 Y113.328 E2.13773
G1 X135.457 Y114.584 E2.17997
G1 X135.404 Y114.837 E2.18857
G1 X135.336 Y115.143 E2.19899
G1 X135.026 Y116.438 E2.24328
G1 X134.988 Y116.59 E2.24849
G1 X134.805 Y117.309 E2.27317
G1 X134.439 Y118.474 E2.31379
G1 X134.329 Y118.766 E2.32416
G1 X134.198 Y119.096 E2.33597
G1 X133.709 Y120.277 E2.37849
G1 X133.649 Y120.42 E2.38365
G1 X133.354 Y121.105 E2.40845
G1 X132.796 Y122.222 E2.44998
G1 X132.631 Y122.51 E2.46102
G1 X132.467 Y122.787 E2.47173
G1 X131.816 Y123.85 E2.51319
G1 X131.737 Y123.977 E2.51816
G1 X131.333 Y124.617 E2.54333
G1 X130.627 Y125.609 E2.58383
G1 X130.421 Y125.867 E2.59481
G1 X130.191 Y126.145 E2.60681
G1 X129.345 Y127.136 E2.65015
G1 X129.241 Y127.256 E2.65543
G1 X128.805 Y127.752 E2.6774
G1 X128.283 Y128.306 E2.70271
G1 X128.078 Y128.509 E2.71231
G1 X127.923 Y128.659 E2.71948
G1 X127.693 Y128.878 E2.73005
G1 X127.16 Y129.354 E2.75381
G1 X126.322 Y130.054 E2.79013
G1 X126.13 Y130.211 E2.79838
G1 X125.596 Y130.637 E2.8211
G1 X125.108 Y131.004 E2.84141
G1 X124.828 Y131.203 E2.85283
G1 X124.558 Y131.39 E2.86376
G1 X124.225 Y131.612 E2.87707
G1 X123.81 Y131.875 E2.89341
G1 X123.353 Y132.151 E2.91117
G1 X123.17 Y132.259 E2.91823
G1 X122.836 Y132.452 E2.93106
G1 X122.705 Y132.526 E2.93607
G1 X122.128 Y132.849 E2.95806
G1 X121.639 Y133.107 E2.97645
G1 X121.3 Y133.275 E2.98903
G1 X120.971 Y133.432 E3.00116
G1 X120.505 Y133.644 E3.01819
G1 X119.96 Y133.874 E3.03786
G1 X119.232 Y134.159 E3.06386
G1 X119.019 Y134.24 E3.07144
G1 X118.467 Y134.443 E3.09101
G1 X117.835 Y134.654 E3.11317
G1 X117.106 Y134.873 E3.13848
G1 X116.85 Y134.946 E3.14734
G1 X116.54 Y135.031 E3.15803
G1 X115.969 Y135.172 E3.17759
G1 X115.307 Y135.316 E3.20012
G1 X115.047 Y135.369 E3.20895
G1 X114.418 Y135.49 E3.23025
G1 X113.815 Y135.589 E3.25058
G1 X113.246 Y135.666 E3.26968
G1 X112.91 Y135.706 E3.28093
G1 X112.372 Y135.762 E3.29892
G1 X112.054 Y135.79 E3.30954
G1 X111.827 Y135.807 E3.31711
G1 X111.605 Y135.822 E3.32451
G1 X111.33 Y135.837 E3.33367
G1 X111.027 Y135.849 E3.34376
G1 X110.284 Y135.869 E3.36848
G1 X109.709 Y135.869 E3.3876
G1 X109.157 Y135.855 E3.40597
G1 X108.821 Y135.842 E3.41715
G1 X108.142 Y135.804 E3.43977
G1 X107.665 Y135.767 E3.45568
G1 X107.224 Y135.723 E3.47042
G1 X106.861 Y135.68 E3.48258
G1 X106.284 Y135.603 E3.50194
G1 X105.647 Y135.499 E3.52341
G1 X104.759 Y135.327 E3.55349
G1 X104.518 Y135.278 E3.56167
G1 X104.002 Y135.166 E3.57924
G1 X103.467 Y135.036 E3.59755
G1 X103.093 Y134.935 E3.61043
G1 X102.768 Y134.841 E3.62168
G1 X102.224 Y134.676 E3.64059
G1 X101.609 Y134.47 E3.66216
G1 X100.804 Y134.173 E3.6907
G1 X100.57 Y134.083 E3.69904
G1 X99.998 Y133.857 E3.7195
G1 X99.535 Y133.662 E3.73621
G1 X99.212 Y133.517 E3.74798
G1 X98.875 Y133.359 E3.76036
G1 X98.414 Y133.133 E3.77744
G1 X97.862 Y132.843 E3.79818
G1 X97.096 Y132.412 E3.82741
G1 X96.847 Y132.267 E3.83699
G1 X96.253 Y131.912 E3.86001
G1 X95.692 Y131.553 E3.88216
G1 X95.08 Y131.135 E3.90681
G1 X94.407 Y130.638 E3.93464
G1 X93.568 Y129.966 E3.97039
G1 X93.344 Y129.781 E3.98005
G1 X92.853 Y129.366 E4.00144
G1 X92.477 Y129.033 E4.01814
G1 X92.218 Y128.793 E4.02989
G1 X91.616 Y128.19 E4.05823
G1 X90.704 Y127.203 E4.10292
G1 X90.459 Y126.929 E4.11515
G1 X89.958 Y126.349 E4.14064
G1 X89.173 Y125.324 E4.18358
G1 X88.689 Y124.609 E4.2123
G1 X88.587 Y124.456 E4.21841
G1 X88.098 Y123.707 E4.24816
G1 X88.015 Y123.578 E4.25327
G1 X87.625 Y122.962 E4.27752
G1 X87.158 Y122.149 E4.3087
G1 X86.904 Y121.627 E4.32801
G1 X86.611 Y120.982 E4.35157
G1 X86.555 Y120.857 E4.35613
G1 X86.121 Y119.869 E4.39202
G1 X86.059 Y119.726 E4.3972
G1 X85.8 Y119.113 E4.41934
G1 X85.472 Y118.234 E4.45054
G1 X85.311 Y117.692 E4.46935
G1 X85.147 Y117.083 E4.49032
G1 X85.105 Y116.922 E4.49586
G1 X84.843 Y115.887 E4.53137
G1 X84.81 Y115.751 E4.53602
G1 X84.632 Y115.008 E4.56143
G1 X84.452 Y114.087 E4.59264
G1 X84.382 Y113.524 E4.61151
G1 X84.32 Y112.895 E4.63254
G1 X84.305 Y112.724 E4.63825
G1 X84.213 Y111.613 E4.67532
G1 X84.2 Y111.453 E4.68066
G1 X84.152 Y110.749 E4.70413
G1 X84.138 Y109.504 E4.74554
G1 X84.148 Y109.283 E4.7529
G1 X84.162 Y109.038 E4.76106
G1 X84.182 Y108.742 E4.77093
G1 X84.19 Y108.629 E4.7747
G1 X84.279 Y107.488 E4.81276
G1 X84.293 Y107.326 E4.81817
G1 X84.354 Y106.669 E4.84012
G1 X84.527 Y105.496 E4.87956
G1 X84.579 Y105.24 E4.88824
G1 X84.662 Y104.867 E4.90095
G1 X84.985 Y103.519 E4.94706
G1 X85.022 Y103.37 E4.95216
G1 X85.195 Y102.69 E4.9755
G1 X85.563 Y101.52 E5.01629
G1 X85.672 Y101.231 E5.02657
G1 X85.804 Y100.897 E5.03851
G1 X86.316 Y99.663 E5.08295
G1 X86.38 Y99.511 E5.08843
G1 X86.653 Y98.88 E5.1113
G1 X87.188 Y97.808 E5.15115
G1 X87.353 Y97.518 E5.16225
G1 X87.533 Y97.213 E5.17403
G1 X88.184 Y96.15 E5.21548
G1 X88.262 Y96.026 E5.22036
G1 X88.667 Y95.384 E5.2456
G1 X89.4 Y94.357 E5.28757
G1 X89.606 Y94.101 E5.2985
G1 X89.808 Y93.857 E5.30903
G1 X90.663 Y92.855 E5.35284
G1 X90.775 Y92.725 E5.35855
G1 X91.21 Y92.231 E5.38044
G1 X91.708 Y91.703 E5.40458
G0 F6000 X91.99 Y91.986
G1 F900 X92.185 Y91.792 E5.41373
G1 X92.361 Y91.621 E5.4219
G1 X92.6 Y91.394 E5.43286
G1 X93.112 Y90.938 E5.45566
G1 X93.942 Y90.246 E5.4916
G1 X94.12 Y90.102 E5.49922
G1 X94.654 Y89.676 E5.52194
G1 X95.123 Y89.322 E5.54148
G1 X95.403 Y89.123 E5.55291
G1 X95.664 Y88.943 E5.56345
G1 X95.997 Y88.721 E5.57677
G1 X96.401 Y88.465 E5.59267
G1 X96.875 Y88.179 E5.61109
G1 X97.051 Y88.075 E5.61788
G1 X97.368 Y87.892 E5.63006
G1 X97.49 Y87.823 E5.63472
G1 X98.067 Y87.5 E5.65671
G1 X98.538 Y87.251 E5.67443
G1 X98.877 Y87.083 E5.68702
G1 X99.193 Y86.933 E5.69865
G1 X99.661 Y86.72 E5.71575
G1 X100.19 Y86.496 E5.73486
G1 X100.916 Y86.212 E5.76079
G1 X101.119 Y86.135 E5.76801
G1 X101.671 Y85.932 E5.78757
G1 X102.28 Y85.729 E5.80892
G1 X103.009 Y85.51 E5.83424
G1 X103.256 Y85.439 E5.84279
G1 X103.566 Y85.354 E5.85348
G1 X104.116 Y85.219 E5.87232
G1 X104.778 Y85.075 E5.89485
G1 X105.029 Y85.024 E5.90337
G1 X105.658 Y84.903 E5.92467
G1 X106.239 Y84.808 E5.94425
G1 X106.808 Y84.731 E5.96335
G1 X107.132 Y84.692 E5.9742
G1 X107.67 Y84.636 E5.9922
G1 X107.975 Y84.609 E6.00238
G1 X108.202 Y84.592 E6.00995
G1 X108.425 Y84.577 E6.01738
G1 X108.704 Y84.562 E6.02668
G1 X108.986 Y84.551 E6.03606
G1 X109.725 Y84.531 E6.06065
G1 X110.281 Y84.53 E6.07914
G1 X110.833 Y84.544 E6.09751
G1 X111.157 Y84.558 E6.1083
G1 X111.835 Y84.596 E6.13088
G1 X112.292 Y84.631 E6.14613
G1 X112.734 Y84.675 E6.1609
G1 X113.086 Y84.716 E6.17269
G1 X113.663 Y84.793 E6.19205
G1 X114.277 Y84.893 E6.21274
G1 X115.165 Y85.065 E6.24282
G1 X115.397 Y85.113 E6.2507
G1 X115.913 Y85.225 E6.26826
G1 X116.429 Y85.351 E6.28593
G1 X116.803 Y85.452 E6.29882
G1 X117.116 Y85.541 E6.30964
G1 X117.66 Y85.706 E6.32855
G1 X118.252 Y85.905 E6.34932
G1 X119.057 Y86.202 E6.37786
G1 X119.28 Y86.287 E6.3858
G1 X119.845 Y86.51 E6.406
G1 X120.291 Y86.698 E6.4221
G1 X120.621 Y86.846 E6.43413
G1 X120.947 Y86.999 E6.4461
G1 X121.398 Y87.22 E6.46281
G1 X121.927 Y87.498 E6.48268
G1 X122.701 Y87.933 E6.51221
G1 X122.944 Y88.074 E6.52156
G1 X123.54 Y88.43 E6.54465
G1 X124.08 Y88.775 E6.56596
G1 X124.688 Y89.19 E6.59045
G1 X125.337 Y89.671 E6.61731
G1 X126.18 Y90.346 E6.65323
G1 X126.398 Y90.524 E6.66259
G1 X126.889 Y90.939 E6.68398
G1 X127.251 Y91.26 E6.70007
G1 X127.51 Y91.5 E6.71181
G1 X128.09 Y92.081 E6.73912
G1 X129.002 Y93.068 E6.78381
G1 X129.239 Y93.333 E6.79564
G1 X129.74 Y93.913 E6.82113
G1 X130.496 Y94.9 E6.86248
G1 X130.98 Y95.615 E6.8912
G1 X131.078 Y95.762 E6.89707
G1 X131.567 Y96.511 E6.92682
G1 X131.637 Y96.62 E6.93113
G1 X132.026 Y97.232 E6.95525
G1 X132.485 Y98.03 E6.98587
G1 X132.735 Y98.544 E7.00488
G1 X133.029 Y99.193 E7.02858
G1 X133.079 Y99.304 E7.03263
G1 X133.495 Y100.251 E7.06703
G1 X133.55 Y100.378 E7.07163
G1 X133.828 Y101.034 E7.09533
G1 X134.15 Y101.896 E7.12594
G1 X134.305 Y102.421 E7.14414
G1 X134.468 Y103.028 E7.16505
G1 X134.505 Y103.17 E7.16993
G1 X134.759 Y104.171 E7.20428
G1 X134.794 Y104.313 E7.20914
G1 X134.98 Y105.091 E7.23575
G1 X135.155 Y105.995 E7.26637
G1 X135.22 Y106.521 E7.284
G1 X135.281 Y107.143 E7.30479
G1 X135.296 Y107.308 E7.3103
G1 X135.388 Y108.425 E7.34757
G1 X135.399 Y108.565 E7.35225
G1 X135.447 Y109.26 E7.37542
G1 X135.462 Y110.458 E7.41526
G1 X135.451 Y110.707 E7.42355
G1 X135.431 Y111.042 E7.43472
G1 X135.328 Y112.397 E7.47991
G1 X135.314 Y112.556 E7.48522
G1 X135.247 Y113.291 E7.50977
G1 X135.066 Y114.502 E7.5505
G1 X135.013 Y114.755 E7.55909
G1 X134.947 Y115.05 E7.56915
G1 X134.637 Y116.345 E7.61344
G1 X134.6 Y116.492 E7.61848
G1 X134.417 Y117.211 E7.64315
G1 X134.064 Y118.333 E7.68228
G1 X133.954 Y118.625 E7.69265
G1 X133.829 Y118.943 E7.70402
G1 X133.34 Y120.124 E7.74653
G1 X133.282 Y120.262 E7.75151
G1 X132.987 Y120.947 E7.77632
G1 X132.448 Y122.023 E7.81634
G1 X132.283 Y122.311 E7.82738
G1 X132.126 Y122.578 E7.83769
G1 X131.475 Y123.641 E7.87915
G1 X131.399 Y123.763 E7.88393
G1 X130.995 Y124.403 E7.9091
G1 X130.314 Y125.359 E7.94814
G1 X130.108 Y125.617 E7.95912
G1 X129.887 Y125.885 E7.97067
G1 X129.041 Y126.876 E8.01401
G1 X128.94 Y126.992 E8.01913
G1 X128.504 Y127.488 E8.04109
G1 X128.002 Y128.022 E8.06547
G1 X127.797 Y128.225 E8.07506
G1 X127.648 Y128.37 E8.08198
G1 X127.418 Y128.589 E8.09254
G1 X126.903 Y129.047 E8.11546
G1 X126.065 Y129.747 E8.15178
G1 X125.88 Y129.898 E8.15972
G1 X125.346 Y130.324 E8.18244
G1 X124.877 Y130.678 E8.20199
G1 X124.597 Y130.877 E8.21341
G1 X124.336 Y131.057 E8.22396
G1 X124.003 Y131.279 E8.23727
G1 X123.603 Y131.533 E8.25303
G1 X123.146 Y131.809 E8.27078
G1 X122.969 Y131.913 E8.27761
G1 X122.635 Y132.106 E8.29044
G1 X122.51 Y132.177 E8.29522
G1 X121.933 Y132.5 E8.31722
G1 X121.462 Y132.749 E8.33494
G1 X121.123 Y132.917 E8.34752
G1 X120.805 Y133.067 E8.35922
G1 X120.339 Y133.279 E8.37624
G1 X119.814 Y133.502 E8.39522
G1 X119.086 Y133.787 E8.42122
G1 X118.881 Y133.865 E8.42851
G1 X118.329 Y134.068 E8.44807
G1 X117.72 Y134.271 E8.46943
G1 X116.991 Y134.49 E8.49474
G1 X116.744 Y134.561 E8.50329
G1 X116.434 Y134.646 E8.51398
G1 X115.884 Y134.781 E8.53282
G1 X115.222 Y134.925 E8.55535
G1 X114.971 Y134.976 E8.56387
G1 X114.342 Y135.097 E8.58517
G1 X113.761 Y135.192 E8.60476
G1 X113.192 Y135.269 E8.62385
G1 X112.868 Y135.308 E8.63471
G1 X112.33 Y135.364 E8.6527
G1 X112.025 Y135.391 E8.66288
G1 X111.798 Y135.408 E8.67045
G1 X111.583 Y135.422 E8.67762
G1 X111.308 Y135.437 E8.68678
G1 X111.016 Y135.449 E8.6965
G1 X110.273 Y135.469 E8.72122
G1 X109.719 Y135.47 E8.73965
G1 X109.167 Y135.456 E8.75801
G1 X108.844 Y135.442 E8.76877
G1 X108.165 Y135.404 E8.79138
G1 X107.705 Y135.369 E8.80673
G1 X107.264 Y135.325 E8.82147
G1 X106.914 Y135.284 E8.83319
G1 X106.337 Y135.207 E8.85255
G1 X105.723 Y135.107 E8.87324
G1 X104.835 Y134.935 E8.90333
G1 X104.603 Y134.887 E8.9112
G1 X104.087 Y134.775 E8.92877
G1 X103.571 Y134.649 E8.94643
G1 X103.197 Y134.548 E8.95932
G1 X102.884 Y134.459 E8.97014
G1 X102.34 Y134.294 E8.98905
G1 X101.748 Y134.095 E9.00982
G1 X100.943 Y133.798 E9.03836
G1 X100.717 Y133.711 E9.04641
G1 X100.145 Y133.485 E9.06687
G1 X99.699 Y133.297 E9.08297
G1 X99.376 Y133.152 E9.09474
G1 X99.051 Y133 E9.10668
G1 X98.59 Y132.774 E9.12375
G1 X98.058 Y132.494 E9.14375
G1 X97.292 Y132.063 E9.17298
G1 X97.052 Y131.924 E9.18221
G1 X96.458 Y131.569 E9.20522
G1 X95.918 Y131.223 E9.22655
G1 X95.306 Y130.805 E9.2512
G1 X94.657 Y130.325 E9.27805
G1 X93.818 Y129.653 E9.31381
G1 X93.602 Y129.476 E9.32309
G1 X93.111 Y129.061 E9.34448
G1 X92.749 Y128.74 E9.36057
G1 X92.49 Y128.5 E9.37231
G1 X91.91 Y127.919 E9.39962
G1 X90.998 Y126.932 E9.44431
G1 X90.761 Y126.667 E9.45614
G1 X90.26 Y126.087 E9.48163
G1 X89.504 Y125.1 E9.52298
G1 X89.02 Y124.385 E9.5517
G1 X88.922 Y124.238 E9.55757
G1 X88.433 Y123.489 E9.58732
G1 X88.353 Y123.364 E9.59226
G1 X87.963 Y122.748 E9.61651
G1 X87.505 Y121.95 E9.64711
G1 X87.268 Y121.462 E9.66516
